X: 11074
T: The COUNTRY SHEEP-SHEARING
T: The WATERMAN'S DANCE
O: From "Durfey's Pills to Purge Melancholy."
Q: "Moderate."
%R: air, waltz
B: W. Hamilton "Universal Tune-Book" Vol. 1 Glasgow 1844 p.107 #4
S: http://imslp.org/wiki/Hamilton's_Universal_Tune-Book_(Various)
Z: 2016 John Chambers <jc:trillian.mit.edu>
M: 3/4
L: 1/4
K: Fmix
%%stretchstaff 0
% - - - - - - - - - - - - - - - - - - - - - - - - -
[|\
fce | dBd | cAc | e3 |\
efe | d2c | fce | dBd |\
cAc | f3 | fgf | =e2c |]
[|\
fcB | A2B | c3 | e3 |\
e>fe | d2c | fcB | A2B |\
c3 | f3 | fgf | =e2c |]
[|\
A2c | G2c | F2c | e3 |\
efe | d2c | A2c | G2c |\
F2c | f3 | fgf | =e2c |]
% - - - - - - - - - - - - - - - - - - - - - - - - -

%%sep 1 1 500
%%sep 1 1 500

